X: 1
T: Fang the Fiddlers
L: 1/8
M: C|
R: Reel
B: The Athole Collection
Z: Nigel Gatherer, Edinburgh  <gatherer@argonet.co.uk>
N: Composed by J R Findlater from Broughty Ferry, by Dundee, during the 1850s.
N: See also Athole version, with six parts.
K: Aminor
e \
| A/A/A eA cAAc | B/B/B gd BGGB | A/A/A eA cAAc | dGdB A2 a :|
|: c | Aaag aeea | gage dBGB | Aaag aeea | gegB A2 a :|
